X: 74
T:Missa L'homme arm\'e super voces musicales / Sanctus
N: Derived from Jos0603d-Missa_Lhomme_arme_super_voces_musicales-Sanctus.krn
C: Josquin des Prez
%%abc-version 2.0
%%abcx-abcm2ps-target-version 5.9.1 (29 Sep 2008)
%%abc-creator hum2abc beta
%%abcx-conversion-date 2019/02/12 16:15:41
%%abc-edited-by Jesse Rodin
%%abc-edited-by Jesse Rodin; Victoria Chang 2011/05/11
%%abcx-initial-encoding-date 2011/05/11/
%%humdrum-veritas 1009467791
%%humdrum-veritas-data 1737576802
%%linebreak <none>
%%barnumbers 0
L: 1/4
M: 3/1
Q: 1/2=120
V: 1 clef=treble
V: 2 clef=treble
V: 3 clef=treble-8
V: 4 clef=treble-8
V: 5 clef=treble-8
V: 6 clef=bass
V: 7 clef=bass
K: C
[V:1] D12 | 
[V:2] z12 | 
[V:3] D3EF2G2D2G2- | 
[V:4] z12 | 
[V:5] z12 :
[V:6] z12 | 
[V:7] z12 | 
[V:1] G8G4 | 
[V:2] z12 | 
[V:3] GAB2c2G3ABc | 
[V:4] z12 | 
[V:5] z12 :
[V:6] z12 | 
[V:7] z12 | 
[V:1] F4E2D2E4 | 
[V:2] z12 | 
[V:3] d2A4B2c3d/e/ | 
[V:4] z12 | 
[V:5] z12 | 
[V:6] z12 | 
[V:7] z12 | 
[V:1] D4A4G2A2- | 
[V:2] z12 | 
[V:3] f3ed2c2B2A2 | 
[V:4] z12 | 
[V:5] z12 :
[V:6] z12 | 
[V:7] z12 | 
[V:1] A2F2G2A2D2A2 | 
[V:2] z12 | 
[V:3] d3cB2A2G2F2 | 
[V:4] z12 | 
[V:5] z12 :
[V:6] z12 | 
[V:7] z12 | 
[V:1] G3FEDD4^C2 | 
[V:2] z12 | 
[V:3] _B3AG2F2E4 | 
[V:4] z12 | 
[V:5] z12 | 
[V:6] z12 | 
[V:7] z12 | 
[V:1] D12 | 
[V:2] z12 | 
[V:3] D4A4_B3A | 
[V:4] z12 | 
[V:5] F8F4 :
[V:6] D,8_B,,4- | 
[V:7] z12 | 
[V:1] z4z4D3E | 
[V:2] z12 | 
[V:3] F2G3FG2D2d2- | 
[V:4] z12 | 
[V:5] _B12 :
[V:6] B,,2G,,2G,,8 | 
[V:7] z12 | 
[V:1] F2D2E2F3EDC | 
[V:2] z12 | 
[V:3] dcd2cBAGF2f2 | 
[V:4] z12 | 
[V:5] _B4A8 | 
[V:6] D,4z4D,4 | 
[V:7] z12 | 
[V:1] B,4z4F4 | 
[V:2] z12 | 
[V:3] e2d3c/d/c3B/c/Bc/B/ | 
[V:4] z12 | 
[V:5] G8F4 :
[V:6] E,2G,3F,E,2D,4 | 
[V:7] z12 | 
[V:1] E2C2D2E3DB,2 | 
[V:2] z12 | 
[V:3] c4B4z2B2 | 
[V:4] z12 | 
[V:5] G12 :
[V:6] C,4z4G,4 | 
[V:7] z12 | 
[V:1] A,4z4G4 | 
[V:2] z12 | 
[V:3] cBAGF2f3de2 | 
[V:4] z12 | 
[V:5] F8z4 | 
[V:6] A,2C3B,A,2G,4 | 
[V:7] z12 | 
[V:1] A4G2E2F3E/D/ | 
[V:2] z12 | 
[V:3] A2f3ee2dd2c/B/ | 
[V:4] z12 | 
[V:5] c4c4F4 :
[V:6] F,4z2C,2D,3E, | 
[V:7] z12 | 
[V:1] C2F3EA2G2c2- | 
[V:2] z12 | 
[V:3] A8z2A2 | 
[V:4] z12 | 
[V:5] z4c8 :
[V:6] F,4z2F,2E,2F,2 | 
[V:7] z12 | 
[V:1] cBA3FG2A2D2 | 
[V:2] z12 | 
[V:3] G2F2c3BA2G2 | 
[V:4] z12 | 
[V:5] c4c6_B2 | 
[V:6] C,2F,4E,2F,2G,2 | 
[V:7] z12 | 
[V:1] z2G3FD3EF2 | 
[V:2] z12 | 
[V:3] E3FG4d4 | 
[V:4] z12 | 
[V:5] c4_B6A2 :
[V:6] C,4z2G,3F,D,2 | 
[V:7] z12 | 
[V:1] G2C4F4E2 | 
[V:2] z12 | 
[V:3] c3B/A/c2B2c3B | 
[V:4] z12 | 
[V:5] G2F2G2F2G4 :
[V:6] E,2F,2C,2D,2C,4 | 
[V:7] z12 | 
[V:1] F2C2z2c3BAG | 
[V:2] z12 | 
[V:3] AGA2F4z2f2- | 
[V:4] z12 | 
[V:5] F12 | 
[V:6] z2C3B,A,G,A,2F,2- | 
[V:7] z12 | 
[V:1] A2F4_B3AGF | 
[V:2] z12 | 
[V:3] fedcd4z2e2- | 
[V:4] z12 | 
[V:5] [M:3/1]z12 :
[V:6] F,2_B,3A,G,F,G,2E,2- | 
[V:7] z12 | 
[V:1] G2E4A3GFE | 
[V:2] z12 | 
[V:3] edcBc4z2d2- | 
[V:4] z12 | 
[V:5] z12 | 
[V:6] E,2A,3G,F,E,F,2D,2- | 
[V:7] z12 | 
[V:1] F2E3DD4^C2 | 
[V:2] z12 | 
[V:3] dcBAB2A4G2 | 
[V:4] z12 | 
[V:5] z12 :
[V:6] D,2G,3F,E,D,E,4 | 
[V:7] z12 | 
[V:1] D12 | 
[V:2] z12 | 
[V:3] A2B2A2B3cd2 | 
[V:4] z12 | 
[V:5] f8f4 | 
[V:6] D,8B,,4 | 
[V:7] z12 | 
[V:1] z2G2A2c3BA2- | 
[V:2] z12 | 
[V:3] G2c3BA3Bc2 | 
[V:4] z12 | 
[V:5] e8e4 :
[V:6] C,4A,,4A,4- | 
[V:7] z12 | 
[V:1] A2GFG2F2G2AG | 
[V:2] z12 | 
[V:3] F4z4d4 | 
[V:4] z12 | 
[V:5] f4d8 | 
[V:6] A,4_B,8 | 
[V:7] z12 | 
[V:1] A8z2G2 | 
[V:2] z12 | 
[V:3] e2A3Bc3BG2 | 
[V:4] z12 | 
[V:5] c12 :
[V:6] A,3G,A,2F,2E,4 | 
[V:7] z12 | 
[V:1] A2F3DD2z2D2 | 
[V:2] z12 | 
[V:3] d3cA2_B3AF2 | 
[V:4] z12 | 
[V:5] f8f4 | 
[V:6] D,4z2D,2_B,,2D,2 | 
[V:7] z12 | 
[V:1] E2C3B,CA,B,2A,2 | 
[V:2] z12 | 
[V:3] c3BAGA2E2A2 | 
[V:4] z12 | 
[V:5] e8e4 :
[V:6] C,2A,,2z2A,2G,2A,2 | 
[V:7] z12 | 
[V:1] A3GFED2A2G2- | 
[V:2] z12 | 
[V:3] D2d3cB2A2B2 | 
[V:4] z12 | 
[V:5] f4d8 | 
[V:6] F,2D,2z2G,2F,2G,2 | 
[V:7] z12 | 
[V:1] GFEDC4z2G2 | 
[V:2] z12 | 
[V:3] G2c2A2c3BG2 | 
[V:4] z12 | 
[V:5] c12 :
[V:6] E,2A,3G,F,2E,4 | 
[V:7] z12 | 
[V:1] A2F3DD2z2D2 | 
[V:2] z12 | 
[V:3] d3cA2_B3AF2 | 
[V:4] z12 | 
[V:5] f12 | 
[V:6] D,12 | 
[V:7] z12 | 
[V:1] E3CD2E3FG2 | 
[V:2] z12 | 
[V:3] c4B2c3BG2 | 
[V:4] z12 | 
[V:5] g12 :
[V:6] z12 | 
[V:7] z12 | 
[V:1] A2B2cAA4^G2 | 
[V:2] z12 | 
[V:3] d3cA2c2B4 | 
[V:4] z12 | 
[V:5] f4e4d4 | 
[V:6] z12 | 
[V:7] z12 | 
[V:1] !fermata!A12 ||  
[V:2] z12 ||  
[V:3] A12 ||  
[V:4] z12 ||  
[V:5] c12 ||  
[V:6] A,,12 ||  
[V:7] z12 ||  
[V:1]  [K:C] [K:clef=treble][M:4/2]z8 | 
[V:2]  [K:C] [K:clef=treble][M:4/2]z8 | 
[V:3]  [K:C] [K:clef=treble-8][M:4/2]z8 | 
[V:4]  [K:C] [K:clef=treble-8][M:4/2]z8 | 
[V:5]  [K:C] [K:clef=treble-8][M:4/2]z8 | 
[V:6]  [K:C] [K:clef=bass][M:4/2]A,4D,2A,2- | 
[V:7]  [K:C] [K:clef=bass][M:4/2]z8 | 
[V:1] z8 | 
[V:2] z8 | 
[V:3] e4A2e2- | 
[V:4] z8 | 
[V:5] z8 | 
[V:6] A,G,E,2F,2E,2 | 
[V:7] z8 | 
[V:1] z8 | 
[V:2] z8 | 
[V:3] edB2c2B2 | 
[V:4] z8 | 
[V:5] z8 | 
[V:6] G,4C,2G,2- | 
[V:7] z8 | 
[V:1] z8 | 
[V:2] z8 | 
[V:3] d4G2d2- | 
[V:4] z8 | 
[V:5] z8 | 
[V:6] G,F,D,2E,2D,2 | 
[V:7] z8 | 
[V:1] A4D2A2- | 
[V:2] z8 | 
[V:3] dcA2B2A2 | 
[V:4] z8 | 
[V:5] z8 | 
[V:6] F,3A,G,F,A,2 | 
[V:7] z8 | 
[V:1] AGE2F2E2 | 
[V:2] z8 | 
[V:3] c4F2c2- | 
[V:4] z8 | 
[V:5] z8 | 
[V:6] z8 | 
[V:7] z8 | 
[V:1] G4C2G2- | 
[V:2] z8 | 
[V:3] cBG2A2G2 | 
[V:4] z8 | 
[V:5] z8 | 
[V:6] z8 | 
[V:7] z8 | 
[V:1] GFD2E2D2 | 
[V:2] z8 | 
[V:3] B3dcBd2 | 
[V:4] z8 | 
[V:5] z8 | 
[V:6] z4z2D,2- | 
[V:7] z8 | 
[V:1] F3AGFA2- | 
[V:2] z8 | 
[V:3] z8 | 
[V:4] z8 | 
[V:5] z8 | 
[V:6] D,2A,2B,2A,2 | 
[V:7] z8 | 
[V:1] A2c2B2Ac- | 
[V:2] z8 | 
[V:3] z4z2A2- | 
[V:4] z8 | 
[V:5] z8 | 
[V:6] C3B,G,2F,A,- | 
[V:7] z8 | 
[V:1] cBG2A2c2 | 
[V:2] z8 | 
[V:3] A2e2f2e2 | 
[V:4] z8 | 
[V:5] z8 | 
[V:6] A,G,E,2z4 | 
[V:7] z8 | 
[V:1] B2d3cAc | 
[V:2] z8 | 
[V:3] g3fd2ce- | 
[V:4] z8 | 
[V:5] z8 | 
[V:6] z8 | 
[V:7] z8 | 
[V:1] BA2^GA2z2 | 
[V:2] z8 | 
[V:3] ecB2A2c2 | 
[V:4] z8 | 
[V:5] z8 | 
[V:6] z2E,2F,2E,2 | 
[V:7] z8 | 
[V:1] z8 | 
[V:2] z8 | 
[V:3] B2d3cAc | 
[V:4] z8 | 
[V:5] z8 | 
[V:6] G,3F,D,2C,E,- | 
[V:7] z8 | 
[V:1] z2D2C2F2- | 
[V:2] z8 | 
[V:3] BA2^GA4 | 
[V:4] z8 | 
[V:5] z8 | 
[V:6] E,C,B,,2A,,4 | 
[V:7] z8 | 
[V:1] FE/D/E2A,4 | 
[V:2] z8 | 
[V:3] z4z2A2 | 
[V:4] z8 | 
[V:5] z8 | 
[V:6] D,2C,2F,3E,/D,/ | 
[V:7] z8 | 
[V:1] z4z2D2 | 
[V:2] z8 | 
[V:3] G2c3B/A/B2 | 
[V:4] z8 | 
[V:5] z8 | 
[V:6] E,2A,,2z4 | 
[V:7] z8 | 
[V:1] C2F3E/D/E2 | 
[V:2] z8 | 
[V:3] A2D2z4 | 
[V:4] z8 | 
[V:5] z8 | 
[V:6] z4D,2C,2 | 
[V:7] z8 | 
[V:1] A,2A2G2c2- | 
[V:2] z8 | 
[V:3] z8 | 
[V:4] z8 | 
[V:5] z8 | 
[V:6] F,3E,/D,/E,2A,,2 | 
[V:7] z8 | 
[V:1] cB/A/B2E4 | 
[V:2] z8 | 
[V:3] z4z2e2 | 
[V:4] z8 | 
[V:5] z8 | 
[V:6] A,2G,2C3B,/A,/ | 
[V:7] z8 | 
[V:1] z4z2A2 | 
[V:2] z8 | 
[V:3] d2g3f/e/f2 | 
[V:4] z8 | 
[V:5] z8 | 
[V:6] B,2E,2z4 | 
[V:7] z8 | 
[V:1] G2c3B/A/cB- | 
[V:2] z8 | 
[V:3] e2A2e3d | 
[V:4] z8 | 
[V:5] z8 | 
[V:6] z8 | 
[V:7] z8 | 
[V:1] BA2^GA4 | 
[V:2] z8 | 
[V:3] cAB2A2c2 | 
[V:4] z8 | 
[V:5] z8 | 
[V:6] z4z2A,2 | 
[V:7] z8 | 
[V:1] z4z2D2 | 
[V:2] z8 | 
[V:3] B2A3FG2 | 
[V:4] z8 | 
[V:5] z8 | 
[V:6] G,2C3B,/A,/B,2 | 
[V:7] z8 | 
[V:1] C2F3E/D/FE- | 
[V:2] z8 | 
[V:3] A4D2A2 | 
[V:4] z8 | 
[V:5] z8 | 
[V:6] A,2D,2z4 | 
[V:7] z8 | 
[V:1] ED2^CD4 | 
[V:2] z8 | 
[V:3] GFE2D4 | 
[V:4] z8 | 
[V:5] z8 | 
[V:6] z4z2A,2 | 
[V:7] z8 | 
[V:1] z8 | 
[V:2] z8 | 
[V:3] z2A4B2 | 
[V:4] z8 | 
[V:5] z8 | 
[V:6] B,2C3B,G,2 | 
[V:7] z8 | 
[V:1] z2A2B2c2- | 
[V:2] z8 | 
[V:3] c3BG2F2 | 
[V:4] z8 | 
[V:5] z8 | 
[V:6] F,4G,2A,2- | 
[V:7] z8 | 
[V:1] cBG2FDA2- | 
[V:2] z8 | 
[V:3] c2zcdf2e | 
[V:4] z8 | 
[V:5] z8 | 
[V:6] A,G,E,2D,4 | 
[V:7] z8 | 
[V:1] A2G2A3G/F/ | 
[V:2] z8 | 
[V:3] dcB2A4 | 
[V:4] z8 | 
[V:5] z8 | 
[V:6] z4z2F,2 | 
[V:7] z8 | 
[V:1] EDF2EDG2 | 
[V:2] z8 | 
[V:3] z4z2c2 | 
[V:4] z8 | 
[V:5] z8 | 
[V:6] G,_B,2A,G,F,E,2 | 
[V:7] z8 | 
[V:1] FDA4G2 | 
[V:2] z8 | 
[V:3] df2edcB2 | 
[V:4] z8 | 
[V:5] z8 | 
[V:6] D,4z4 | 
[V:7] z8 | 
[V:1] Ac2BAGF2 | 
[V:2] z8 | 
[V:3] A8- | 
[V:4] z8 | 
[V:5] z8 | 
[V:6] A,,3B,,C,2D,2 | 
[V:7] z8 | 
[V:1] E8 ||  
[V:2] z8 ||  
[V:3] A8 ||  
[V:4] z8 ||  
[V:5] z8 ||  
[V:6] A,,8 ||  
[V:7] z8 ||  
[V:1]  [K:C] [K:clef=treble][M:3/1]A3GE2F2D2F2 | 
[V:2]  [K:C] [K:clef=treble][M:3/1]z12 | 
[V:3]  [K:C] [K:clef=treble-8][M:3/1]A3Bc2d4z2 | 
[V:4]  [K:C] [K:clef=treble-8][M:3/1]z12 | 
[V:5]  [K:C] [K:clef=treble-8][M:3/1]z6z6 :
[V:6]  [K:C] [K:clef=bass][M:3/1]z12 | 
[V:7]  [K:C] [K:clef=bass][M:3/1]z12 | 
[V:1] E2A3G :
[V:2] z6 :
[V:3] A3Bc2 :
[V:4] z6 :
[V:5] z6 | 
[V:6] z6 :
[V:7] z6 :
[V:1] F3DE2 [I:setbarnb 70]| 
[V:2] x6 | 
[V:3] d4A2 | 
[V:4] x6 | 
[V:5] z6 :
[V:6] x6 | 
[V:7] x6 | 
[V:1] F2E3DD4^C2 | 
[V:2] z12 | 
[V:3] d2c2d4e4 | 
[V:4] z12 | 
[V:5] z6z6 | 
[V:6] z12 | 
[V:7] z12 | 
[V:1] D12 | 
[V:2] z12 | 
[V:3] d3cA2G2d4 | 
[V:4] z12 | 
[V:5] F4F2_B6 :
[V:6] D,3E,F,2G,4D,2 | 
[V:7] z12 | 
[V:1] z6 :
[V:2] z6 :
[V:3] z6 :
[V:4] z6 :
[V:5] _B2A4 | 
[V:6] G,2F,2G,2- :
[V:7] z6 :
[V:1] x6 [I:setbarnb 73]| 
[V:2] x6 | 
[V:3] x6 | 
[V:4] x6 | 
[V:5] G4F2 :
[V:6] G,2A,4 | 
[V:7] x6 | 
[V:1] z4z2A2F2G2 | 
[V:2] z12 | 
[V:3] d2B2c2d3cB2 | 
[V:4] z12 | 
[V:5] G6F4z2 | 
[V:6] G,3F,E,2D,4E,2 | 
[V:7] z12 | 
[V:1] A3GF2E4F2 | 
[V:2] z12 | 
[V:3] A4B2c3BA2 | 
[V:4] z12 | 
[V:5] c2c2F2z2c4 :
[V:6] F,3E,D,2C,4F,2 | 
[V:7] z12 | 
[V:1] G2C2D2 :
[V:2] z6 :
[V:3] G2F3G :
[V:4] z6 :
[V:5] c2c3_B | 
[V:6] E,2F,2D,2 :
[V:7] z6 :
[V:1] E2G3F [I:setbarnb 76]| 
[V:2] x6 | 
[V:3] A2G4 | 
[V:4] x6 | 
[V:5] c2_B3A :
[V:6] C,2_E,4 | 
[V:7] x6 | 
[V:1] F4E2F2c3B | 
[V:2] z12 | 
[V:3] c3Bc2A2F2c2 | 
[V:4] z12 | 
[V:5] GFGFG2F6 | 
[V:6] F,2C,4C3B,A,G, | 
[V:7] z12 | 
[V:1] AGA3GFEF3D | 
[V:2] z12 | 
[V:3] F4z2z6 | 
[V:4] z12 | 
[V:5] [M:3/1]z12 | 
[V:6] A,3G,F,E,F,2D,2F,2 | 
[V:7] z12 | 
[V:1] D4^C2D6 | 
[V:2] z12 | 
[V:3] z6A3GAB | 
[V:4] z12 | 
[V:5] z6f4f2 | 
[V:6] G,2E,4D,4z2 | 
[V:7] z12 | 
[V:1] z4z2A3GAB | 
[V:2] z12 | 
[V:3] c3BG2F4z2 | 
[V:4] z12 | 
[V:5] e4e2f2d4 | 
[V:6] A,,3B,,C,2D,4F,2- | 
[V:7] z12 | 
[V:1] c3BG2F4z2 | 
[V:2] z12 | 
[V:3] z6A3GAB | 
[V:4] z12 | 
[V:5] c6f4f2 | 
[V:6] F,2E,4D,4z2 | 
[V:7] z12 | 
[V:1] z4z2A3GAB | 
[V:2] z12 | 
[V:3] c3BG2F4z2 | 
[V:4] z12 | 
[V:5] e4e2f2d4 | 
[V:6] A,,3B,,C,2D,4F,2- | 
[V:7] z12 | 
[V:1] c3BG2F2A3G | 
[V:2] z12 | 
[V:3] A3Bc2d4d2 | 
[V:4] z12 | 
[V:5] c6f6 | 
[V:6] F,2E,4D,3C,D,2 | 
[V:7] z12 | 
[V:1] E2z2G2A3GF2 | 
[V:2] z12 | 
[V:3] c2B4A4A2 | 
[V:4] z12 | 
[V:5] g6f2e2d2 | 
[V:6] E,3D,E,2F,2C,2D,2 | 
[V:7] z12 | 
[V:1] E2A,2E2E2A,2A2 | 
[V:2] z12 | 
[V:3] e2e2A2e2e2A2 | 
[V:4] z12 | 
[V:5] c6z6 | 
[V:6] A,,4A,2G,2A,2F,2 | 
[V:7] z12 | 
[V:1] G3AB2c2B3A | 
[V:2] z12 | 
[V:3] e4e2e4d2 | 
[V:4] z12 | 
[V:5] [M:3/1]z6z6 :
[V:6] E,3F,G,2A,2E,2G,2 | 
[V:7] z12 | 
[V:1] A4G2 :
[V:2] z6 :
[V:3] c2B4 :
[V:4] z6 :
[V:5] z6 | 
[V:6] A,2E,4 :
[V:7] z6 :
[V:1] C2A3G [I:setbarnb 87]| 
[V:2] x6 | 
[V:3] A2A2D2 | 
[V:4] x6 | 
[V:5] F6 :
[V:6] F,2D,2A,2 | 
[V:7] x6 | 
[V:1] FEF3ED4C2 | 
[V:2] z12 | 
[V:3] A2A2D2z2A2A2 | 
[V:4] z12 | 
[V:5] F6F6 | 
[V:6] D,3C,D,2B,,2A,,4 | 
[V:7] z12 | 
[V:1] D6z2z4 | 
[V:2] z12 | 
[V:3] D2G4F3DA2 | 
[V:4] z12 | 
[V:5] _B6_B2A4 :
[V:6] G,,4z2D,3E,F,2 | 
[V:7] z12 | 
[V:1] z4z2 :
[V:2] z6 :
[V:3] B2^c3B :
[V:4] z6 :
[V:5] G6 | 
[V:6] G,2E,4 :
[V:7] z6 :
[V:1] A3GFE [I:setbarnb 90]| 
[V:2] x6 | 
[V:3] d4=c2 | 
[V:4] x6 | 
[V:5] F6 :
[V:6] D,2A,2A,2 | 
[V:7] x6 | 
[V:1] F3ED2C2c3B | 
[V:2] z12 | 
[V:3] d2c2d2e4z2 | 
[V:4] z12 | 
[V:5] z6c6 | 
[V:6] D,2A,2D,2A,3G,A,2 | 
[V:7] z12 | 
[V:1] A2G2E2F2_B3A | 
[V:2] z12 | 
[V:3] A3Bc2d4d2 | 
[V:4] z12 | 
[V:5] c6F6 :
[V:6] F,2E,4D,2_B,,4 | 
[V:7] z12 | 
[V:1] A4G2 :
[V:2] z6 :
[V:3] c2B4 :
[V:4] z6 :
[V:5] z6 | 
[V:6] C,2D,2E,2 :
[V:7] z6 :
[V:1] A4A2 [I:setbarnb 93]| 
[V:2] x6 | 
[V:3] A4A2 | 
[V:4] x6 | 
[V:5] c6 :
[V:6] A,,2A,2F,2 | 
[V:7] x6 | 
[V:1] G2A2G2E2F2G2- | 
[V:2] z12 | 
[V:3] e2A2e2e2A2e2 | 
[V:4] z12 | 
[V:5] c6c6 | 
[V:6] C,2F,2E,2A,2F,2C,2 | 
[V:7] z12 | 
[V:1] GFD2F2G2A2F2 | 
[V:2] z12 | 
[V:3] d2G2d2G2c2d2 | 
[V:4] z12 | 
[V:5] _B6_B2A4 :
[V:6] G,3F,D,2E,2F,2D,2 | 
[V:7] z12 | 
[V:1] G2E2G2 :
[V:2] z6 :
[V:3] B2c2d2- :
[V:4] z6 :
[V:5] G6 | 
[V:6] E,2C,2G,,2 :
[V:7] z6 :
[V:1] A2F2D2 [I:setbarnb 96]| 
[V:2] x6 | 
[V:3] dcA2B2 | 
[V:4] x6 | 
[V:5] F6 :
[V:6] D,4B,,2 | 
[V:7] x6 | 
[V:1] E2F3DD4^C2 | 
[V:2] z12 | 
[V:3] G2A2F2G2E4 | 
[V:4] z12 | 
[V:5] z6z6 | 
[V:6] C,2A,,2B,,2G,,2A,,4 | 
[V:7] z12 | 
[V:1] D12 ||  
[V:2] z12 ||  
[V:3] !fermata!D12 ||  
[V:4] z12 ||  
[V:5] z12 ||  
[V:6] D,12 ||  
[V:7] z12 ||  
[V:1]  [K:C] [K:clef=treble][M:2/1]z8 | 
[V:2]  [K:C] [K:clef=treble][M:2/1]z8 | 
[V:3]  [K:C] [K:clef=treble-8][M:2/1]z8 | 
[V:4]  [K:C] [K:clef=treble-8][M:2/1]z8 | 
[V:5]  [K:C] [K:clef=treble-8][M:2/1]z8 | 
[V:6]  [K:C] [K:clef=bass][M:4/2]D,8- | 
[V:7]  [K:C] [K:clef=bass][M:2/1]D,6E,2 | 
[V:1] z8 | 
[V:2] z8 | 
[V:3] z8 | 
[V:4] z8 | 
[V:5] z8 | 
[V:6] D,4E,4 | 
[V:7] F,4G,4 | 
[V:1] z8 | 
[V:2] z8 | 
[V:3] z8 | 
[V:4] z8 | 
[V:5] z8 | 
[V:6] F,8 | 
[V:7] A,4D,4 | 
[V:1] z8 | 
[V:2] z8 | 
[V:3] z8 | 
[V:4] z8 | 
[V:5] z8 | 
[V:6] G,8 | 
[V:7] E,2C,2B,,4 | 
[V:1] z8 | 
[V:2] z8 | 
[V:3] z8 | 
[V:4] z8 | 
[V:5] z8 | 
[V:6] A,8 | 
[V:7] A,,3B,,C,2D,2- | 
[V:1] z8 | 
[V:2] z8 | 
[V:3] z8 | 
[V:4] z8 | 
[V:5] z8 | 
[V:6] D,8 | 
[V:7] D,E,F,G,A,2B,2 | 
[V:1] z8 | 
[V:2] z8 | 
[V:3] z8 | 
[V:4] z8 | 
[V:5] z8 | 
[V:6] E,4C,4 | 
[V:7] G,2C3B,A,2 | 
[V:1] z8 | 
[V:2] z8 | 
[V:3] z8 | 
[V:4] z8 | 
[V:5] z8 | 
[V:6] B,,8 | 
[V:7] G,2A,4^G,2 | 
[V:1] z8 | 
[V:2] z8 | 
[V:3] z8 | 
[V:4] z8 | 
[V:5] z8 | 
[V:6] A,,6B,,2 | 
[V:7] A,8- | 
[V:1] z8 | 
[V:2] z8 | 
[V:3] z8 | 
[V:4] z8 | 
[V:5] z8 | 
[V:6] C,4D,4- | 
[V:7] A,8 | 
[V:1] z8 | 
[V:2] z8 | 
[V:3] z8 | 
[V:4] z8 | 
[V:5] z8 | 
[V:6] D,2E,2F,2G,2 | 
[V:7] z4D,4- | 
[V:1] z8 | 
[V:2] z8 | 
[V:3] z8 | 
[V:4] z8 | 
[V:5] z8 | 
[V:6] A,4B,4 | 
[V:7] D,2C,2D,2E,2- | 
[V:1] z8 | 
[V:2] z8 | 
[V:3] z8 | 
[V:4] z8 | 
[V:5] z8 | 
[V:6] G,4C4- | 
[V:7] E,2C,4B,,A,, | 
[V:1] z8 | 
[V:2] z8 | 
[V:3] z8 | 
[V:4] z8 | 
[V:5] z8 | 
[V:6] C2B,2A,4 | 
[V:7] A,,2E,2F,2D,2 | 
[V:1] z8 | 
[V:2] z8 | 
[V:3] z8 | 
[V:4] z8 | 
[V:5] z8 | 
[V:6] G,4A,4- | 
[V:7] E,2C,4D,2- | 
[V:1] z8 | 
[V:2] z8 | 
[V:3] z8 | 
[V:4] z8 | 
[V:5] z8 | 
[V:6] A,4^G,4 | 
[V:7] D,2A,,2B,,4 | 
[V:1] z8 ||  
[V:2] z8 ||  
[V:3] z8 ||  
[V:4] z8 ||  
[V:5] z8 ||  
[V:6] A,8 ||  
[V:7] A,,8 ||  
[V:1]  [K:C] [K:clef=treble][M:2/1]z8 | 
[V:2]  [K:C] [K:clef=treble][M:2/1]z8 | 
[V:3]  [K:C] [K:clef=treble-8][M:4/2]A8 | 
[V:4]  [K:C] [K:clef=treble-8][M:2/1]A4c4- | 
[V:5]  [K:C] [K:clef=treble-8][M:2/1]z8 | 
[V:6]  [K:C] [K:clef=bass][M:2/1]z8 | 
[V:7]  [K:C] [K:clef=bass][M:2/1]z8 | 
[V:1] z8 | 
[V:2] z8 | 
[V:3] c8- | 
[V:4] c2B2A4- | 
[V:5] z8 | 
[V:6] z8 | 
[V:7] z8 | 
[V:1] z8 | 
[V:2] z8 | 
[V:3] c4B4 | 
[V:4] A2F2G4 | 
[V:5] z8 | 
[V:6] z8 | 
[V:7] z8 | 
[V:1] z8 | 
[V:2] z8 | 
[V:3] A8- | 
[V:4] F4c3d | 
[V:5] z8 | 
[V:6] z8 | 
[V:7] z8 | 
[V:1] z8 | 
[V:2] z8 | 
[V:3] A4F4 | 
[V:4] e2f3ed2- | 
[V:5] z8 | 
[V:6] z8 | 
[V:7] z8 | 
[V:1] z8 | 
[V:2] z8 | 
[V:3] G8 | 
[V:4] dcBAB4 | 
[V:5] z8 | 
[V:6] z8 | 
[V:7] z8 | 
[V:1] z8 | 
[V:2] z8 | 
[V:3] F8 | 
[V:4] A8 | 
[V:5] z8 | 
[V:6] z8 | 
[V:7] z8 | 
[V:1] z8 | 
[V:2] z8 | 
[V:3] c6d2 | 
[V:4] z4A4 | 
[V:5] z8 | 
[V:6] z8 | 
[V:7] z8 | 
[V:1] z8 | 
[V:2] z8 | 
[V:3] e4f4- | 
[V:4] G2A3GFE | 
[V:5] z8 | 
[V:6] z8 | 
[V:7] z8 | 
[V:1] z8 | 
[V:2] z8 | 
[V:3] f2e2d4- | 
[V:4] D6E2 | 
[V:5] z8 | 
[V:6] z8 | 
[V:7] z8 | 
[V:1] z8 | 
[V:2] z8 | 
[V:3] d2c2B2A2 | 
[V:4] F4G2A2- | 
[V:5] z8 | 
[V:6] z8 | 
[V:7] z8 | 
[V:1] z8 | 
[V:2] z8 | 
[V:3] B8 | 
[V:4] A2G2d4 | 
[V:5] z8 | 
[V:6] z8 | 
[V:7] z8 | 
[V:1] z8 ||  
[V:2] z8 ||  
[V:3] A8 ||  
[V:4] c8 ||  
[V:5] z8 ||  
[V:6] z8 ||  
[V:7] z8 ||  
[V:1]  [K:C] [K:clef=treble][M:4/2]A8- | 
[V:2]  [K:C] [K:clef=treble][M:2/1]A6G2 | 
[V:3]  [K:C] [K:clef=treble-8][M:2/1]z8 | 
[V:4]  [K:C] [K:clef=treble-8][M:2/1]z8 | 
[V:5]  [K:C] [K:clef=treble-8][M:2/1]z8 | 
[V:6]  [K:C] [K:clef=bass][M:4/2]z8 | 
[V:7]  [K:C] [K:clef=bass][M:2/1]z8 | 
[V:1] A4G4 | 
[V:2] F4E4 | 
[V:3] z8 | 
[V:4] z8 | 
[V:5] z8 | 
[V:6] z8 | 
[V:7] z8 | 
[V:1] F8 | 
[V:2] D4A,4- | 
[V:3] z8 | 
[V:4] z8 | 
[V:5] z8 | 
[V:6] z8 | 
[V:7] z8 | 
[V:1] E8 | 
[V:2] A,2B,2C4 | 
[V:3] z8 | 
[V:4] z8 | 
[V:5] z8 | 
[V:6] z8 | 
[V:7] z8 | 
[V:1] D8 | 
[V:2] D4F4- | 
[V:3] z8 | 
[V:4] z8 | 
[V:5] z8 | 
[V:6] z8 | 
[V:7] z8 | 
[V:1] A,8- | 
[V:2] F2E2C3D | 
[V:3] z8 | 
[V:4] z8 | 
[V:5] z8 | 
[V:6] z8 | 
[V:7] z8 | 
[V:1] A,4B,4 | 
[V:2] E2F3DG2- | 
[V:3] z8 | 
[V:4] z8 | 
[V:5] z8 | 
[V:6] z8 | 
[V:7] z8 | 
[V:1] C8 | 
[V:2] GFEDE4 | 
[V:3] z8 | 
[V:4] z8 | 
[V:5] z8 | 
[V:6] z8 | 
[V:7] z8 | 
[V:1] D8 | 
[V:2] F6D2 | 
[V:3] z8 | 
[V:4] z8 | 
[V:5] z8 | 
[V:6] z8 | 
[V:7] z8 | 
[V:1] F8- | 
[V:2] D4z4 | 
[V:3] z8 | 
[V:4] z8 | 
[V:5] z8 | 
[V:6] z8 | 
[V:7] z8 | 
[V:1] F4E4 | 
[V:2] A4B2c2- | 
[V:3] z8 | 
[V:4] z8 | 
[V:5] z8 | 
[V:6] z8 | 
[V:7] z8 | 
[V:1] C6D2 | 
[V:2] cBA2G2F2 | 
[V:3] z8 | 
[V:4] z8 | 
[V:5] z8 | 
[V:6] z8 | 
[V:7] z8 | 
[V:1] E4F4- | 
[V:2] G4z2F2 | 
[V:3] z8 | 
[V:4] z8 | 
[V:5] z8 | 
[V:6] z8 | 
[V:7] z8 | 
[V:1] F2D2G4- | 
[V:2] D2F2EDCB, | 
[V:3] z8 | 
[V:4] z8 | 
[V:5] z8 | 
[V:6] z8 | 
[V:7] z8 | 
[V:1] G2F2E2D2 | 
[V:2] C2D2A,2B,2 | 
[V:3] z8 | 
[V:4] z8 | 
[V:5] z8 | 
[V:6] z8 | 
[V:7] z8 | 
[V:1] E8 | 
[V:2] C2D4^C2 | 
[V:3] z8 | 
[V:4] z8 | 
[V:5] z8 | 
[V:6] z8 | 
[V:7] z8 | 
[V:1] F8- | 
[V:2] D8- | 
[V:3] z8 | 
[V:4] z8 | 
[V:5] z8 | 
[V:6] z8 | 
[V:7] z8 | 
[V:1] F4D4 | 
[V:2] D8- | 
[V:3] z8 | 
[V:4] z8 | 
[V:5] z8 | 
[V:6] z8 | 
[V:7] z8 | 
[V:1] D8 ||  
[V:2] D8 ||  
[V:3] z8 ||  
[V:4] z8 ||  
[V:5] z8 ||  
[V:6] z8 ||  
[V:7] z8 ||  



